symbols/web/do_not_touch/materialsymbolsoutlined/do_not_touch_wght500fill1_40px.svg

<svg xmlns="http://www.w3.org/2000/svg" height="40" width="40"><path d="m34 38.333-2.333-2.375q-.667.542-1.459.854-.791.313-1.666.313H18.167q-.959 0-1.938-.417-.979-.416-1.646-1.166L3.042 23.375l1.833-1.75q.417-.375.937-.417.521-.041.98.25l4.75 2.667v-8.208L2.083 6.458l2.042-2.041 31.917 31.875Zm-.542-8.541L22.167 18.5h1.416V5.125q0-.833.563-1.396.562-.562 1.354-.562.833 0 1.396.562.562.563.562 1.396v13.5h2.125V8.542q0-.792.563-1.354.562-.563 1.396-.563.833 0 1.375.563.541.562.541 1.354Zm-12-12-3.875-3.917V3.417q0-.834.563-1.396.562-.563 1.354-.563.833 0 1.396.563.562.562.562 1.396Zm-6-6-3.833-3.834V6.5q.042-.708.583-1.167.542-.458 1.292-.458.792 0 1.375.583.583.584.583 1.375Z"/></svg>

<svg xmlns="http://www.w3.org/2000/svg" height="40" width="40"><path d="M34 38.333 31.667 35.958Q31 36.5 30.208 36.812Q29.417 37.125 28.542 37.125H18.167Q17.208 37.125 16.229 36.708Q15.25 36.292 14.583 35.542L3.042 23.375L4.875 21.625Q5.292 21.25 5.812 21.208Q6.333 21.167 6.792 21.458L11.542 24.125V15.917L2.083 6.458L4.125 4.417L36.042 36.292ZM33.458 29.792 22.167 18.5H23.583V5.125Q23.583 4.292 24.146 3.729Q24.708 3.167 25.5 3.167Q26.333 3.167 26.896 3.729Q27.458 4.292 27.458 5.125V18.625H29.583V8.542Q29.583 7.75 30.146 7.188Q30.708 6.625 31.542 6.625Q32.375 6.625 32.917 7.188Q33.458 7.75 33.458 8.542ZM21.458 17.792 17.583 13.875V3.417Q17.583 2.583 18.146 2.021Q18.708 1.458 19.5 1.458Q20.333 1.458 20.896 2.021Q21.458 2.583 21.458 3.417ZM15.458 11.792 11.625 7.958V6.5Q11.667 5.792 12.208 5.333Q12.75 4.875 13.5 4.875Q14.292 4.875 14.875 5.458Q15.458 6.042 15.458 6.833Z"/></svg>
